X: 39782
T: That Time, That Place
R: slip jig
M: 9/8
K: Edorian
M:5/4
|:E2BAB3E AB|F3E FG AGFG|
E2BA B2e3d|cAdc B2 AGFG:|
K:Ador
AEAB c2 ed c2|B3A Bc dcBG|
edcB c2 edcd|1 B3A Bc dcBG:|2 B3A cA BAGF||

